X: 35281
T: Rose Of Aranmore, The
R: waltz
M: 3/4
K: Dmajor
AF|D4 F2|A2 F2 D2|G4 B2|d3 c B2|A4 B2|A2 F2 D2|E6 -|E4 AF|
D4 DF|A2 (3FGF D2|G4 B2|d2 c2 B2|A4 FA|G2 F2- FE|D6 -|D4 EF||
G4 B2|d2 c2 B2|A4 B2|A2 F2- FD|G4 B2|A2 (3FGF D2|E6 -|E4 AF|
D4- DF|A2 F2- FD|G3 D GB|d2 c2- cB|A4- AF|G2 F2 E2|D6 -|D4||

